!! 00000] TT[WS
!!!OTL: Xiaoguafu shangfeng
!!!ARE: Asia, China, Shanxi Hequ
!! Ethnic Group: Han
!! WII, 11
!!!SCT: J0412
!!!YEM: Copyright 1995, estate of Helmut Schaffrath.
**kern
*ICvox
*Ivox
*M2/4
*k[]
*C:
{8ee
4ee
16ee
16ee
=1
8ee
4dd
8dd
=2
8.dd
16cc
8a
8g
=3
2e}
=4
{16a
16a
16a
16a
8dd
8cc
=5
8a
4.g
=6
8g
8a
8cc
8a
=7
2g}
==
!!!AGN: Shange, Shanqu. Qingge, Aisu
!!!ONB: ESAC (Essen Associative Code) Database: CHINA
!!!AMT: simple duple
!!!AIN: vox
!!!EED: Helmut Schaffrath
!!!EEV: 1.0
*-
